src/img/icons/blog2.svg

<svg 
 xmlns="http://www.w3.org/2000/svg"
 xmlns:xlink="http://www.w3.org/1999/xlink"
 width="22px" height="16px">
<defs>
<filter id="Filter_0">
    <feFlood flood-color="rgb(255, 255, 255)" flood-opacity="1" result="floodOut" />
    <feComposite operator="atop" in="floodOut" in2="SourceGraphic" result="compOut" />
    <feBlend mode="normal" in="compOut" in2="SourceGraphic" />
</filter>

</defs>
<g filter="url(#Filter_0)">
<path fill-rule="evenodd"  fill="rgb(0, 0, 0)"
 d="M19.080,15.994 L2.919,15.994 C1.314,15.994 0.009,14.686 0.009,13.081 L0.009,4.575 C0.009,3.056 1.177,1.804 2.662,1.674 C2.792,1.119 3.154,0.740 3.586,0.740 L5.683,0.740 C6.113,0.740 6.472,1.115 6.604,1.662 L9.570,1.662 L11.007,0.002 L15.918,0.002 L17.687,1.662 L19.080,1.662 C20.685,1.662 21.989,2.969 21.989,4.575 L21.989,13.081 C21.989,14.686 20.685,15.994 19.080,15.994 ZM2.641,6.513 C2.641,6.209 2.394,5.963 2.091,5.963 C1.787,5.963 1.541,6.209 1.541,6.513 L1.541,12.319 C1.541,12.623 1.787,12.870 2.091,12.870 C2.394,12.870 2.641,12.623 2.641,12.319 L2.641,6.513 ZM5.949,3.472 C5.949,3.150 5.689,2.890 5.368,2.890 L3.878,2.890 C3.557,2.890 3.297,3.150 3.297,3.472 L3.297,3.813 C3.297,4.133 3.557,4.394 3.878,4.394 L5.368,4.394 C5.688,4.394 5.949,4.133 5.949,3.813 L5.949,3.472 ZM13.741,4.250 C11.177,4.250 9.091,6.339 9.091,8.905 C9.091,11.471 11.177,13.559 13.741,13.559 C16.304,13.559 18.389,11.471 18.389,8.905 C18.389,6.339 16.304,4.250 13.741,4.250 ZM13.741,12.168 C11.944,12.168 10.482,10.704 10.482,8.905 C10.482,7.106 11.944,5.643 13.741,5.643 C15.538,5.643 16.999,7.106 16.999,8.905 C16.999,10.704 15.538,12.168 13.741,12.168 Z"/>
</g>
</svg>

<svg xmlns="http://www.w3.org/2000/svg" width="22" height="16"><defs><filter id="a"><feFlood flood-color="#FFF" flood-opacity="1" result="floodOut"/><feComposite operator="atop" in="floodOut" in2="SourceGraphic" result="compOut"/><feBlend in="compOut" in2="SourceGraphic"/></filter></defs><g filter="url(#a)"><path fill-rule="evenodd" d="M19.08 16H2.92C1.32 16 0 14.68 0 13.07v-8.5a2.91 2.91 0 012.65-2.9c.13-.56.5-.94.93-.94h2.1c.42 0 .78.38.91.92h2.97L11.01 0h4.9l1.78 1.66h1.39c1.6 0 2.9 1.3 2.9 2.92v8.5c0 1.6-1.3 2.91-2.9 2.91zM2.64 6.5a.55.55 0 00-1.1 0v5.8a.55.55 0 101.1 0v-5.8zm3.3-3.04a.58.58 0 00-.57-.58h-1.5a.58.58 0 00-.57.58v.34c0 .32.26.58.58.58h1.49c.32 0 .58-.26.58-.58v-.34zm7.8.78a4.66 4.66 0 10.02 9.32 4.66 4.66 0 00-.02-9.32zm0 7.92a3.26 3.26 0 11.01-6.53 3.26 3.26 0 010 6.53z"/></g></svg>
